X:1
T:6 Gesänge
T:Frühlingsgruß
T:Felix Mendelssohn, Arr. Ignaz Heim
T:1-2: Heinrich Heine, 3-4: August Heinrich Hoffmann von Fallersleben
T:Frühlingsgruß
T:Op. 19a, No. 5
T:CPDL - Creative Commons Attribution Non Commercial 3.0
T:CPDL - Creative Commons Attribution Non Commercial 3.0
C:Felix Mendelssohn
Z:Heinrich Heine
Z:CPDL - Creative Commons Attribution Non Commercial 3.0
%%score [ ( 1 2 ) 3 4 ]
L:1/8
Q:1/4=56
M:2/4
K:D
V:1 treble nm="Sopran\nAlt"
V:2 treble 
V:3 treble-8 nm="Tenor"
V:4 bass nm="Bass"
V:1
!p!"^Einfach und zart" AF AF | G!>(!A B2!>)! |!mf! dc!<(! dB!<)! | A2 F2 |!p! BF!<(! ^DF!<)! | %5
w: 1.~~Lei- se zieht durch|mein Ge- müt|lieb- li- ches Ge-|läu- te;|klin- ge, klei- nes|
w: 2.~Zieh' hin- aus bis|an das Haus,|wo die Veil- chen|sprie- ßen;|wenn du ei- ne|
 BF G2 |!mf! A!<(!B c!<)!d | (f2!>(! e2)!>)! | d3 !fermata!z |] %9
w: Früh- lings- lied,|kling' hin- aus in's|Wei- *|te!|
w: Ro- se schaust,|sag, ich lass sie|grü- *|ßen!|
V:2
 FD DD | EF G2 | DD DD | D2 F2 | ^DD B,D | F^D E2 | FA GF | (A2 G2) | F3 x |] %9
V:3
!p! dA fd | d!>(!d d2!>)! |!mf! B^A!<(! BG!<)! | F2 F2 |!p! FB!<(! FB!<)! | ^dB B2 | %6
w: 3.~Sprich zum Vög- lein,|das da singt|auf dem schwan- ken|Zwei- ge,|und zum Bäch- lein,|das da klingt,|
w: 4.~Schal- le Lied, wo’s|grünt und blüht,|hold im A- ben-|schei- ne,|wieg' in sü- ßen|Schlum- mer dann,|
!mf! f!<(!f e!<)!d | (d2!>(! c2)!>)! | A3 !fermata!z |] %9
w: dass mir kei- nes|schwei- *|ge!|
w: Rös- chen, das ich|mei- *|ne!|
V:4
!p! D,D, D,D, | D,!>(!D, D,2!>)! |!mf! D,D,!<(! D,D,!<)! | D,2 F,2 |!p! B,,B,,!<(! B,,B,,!<)! | %5
 B,,B,, E,2 |!mf! A,!<(!A, A,!<)!A, |!>(! A,,4!>)! | D,3 !fermata!z |] %9

